src/assets/graphics/icons/file-missing.svg

<svg width="426" height="512" viewBox="0 0 426 512" fill="none" xmlns="http://www.w3.org/2000/svg">
<g clip-path="url(#clip0_608_312)">
<path d="M298.333 320C298.333 331.776 288.776 341.333 277 341.333H149C137.224 341.333 127.667 331.776 127.667 320C127.667 308.224 137.224 298.667 149 298.667H277C288.776 298.667 298.333 308.224 298.333 320ZM426.333 223.68V405.333C426.333 464.149 378.483 512 319.667 512H106.333C47.5173 512 -0.333374 464.149 -0.333374 405.333V106.667C-0.333374 47.8507 47.5173 0 106.333 0H202.653C242.547 0 280.029 15.5307 308.253 43.7333L382.6 118.08C410.803 146.283 426.333 183.787 426.333 223.68ZM278.067 73.8987C271.283 67.1147 263.752 61.376 255.667 56.7253V149.333C255.667 161.088 265.245 170.667 277 170.667H369.608C364.957 162.581 359.219 155.029 352.435 148.267L278.088 73.92L278.067 73.8987ZM383.667 223.68C383.667 220.203 383.496 216.747 383.176 213.333H277C241.715 213.333 213 184.619 213 149.333V43.1573C209.587 42.8373 206.131 42.6667 202.653 42.6667H106.333C71.048 42.6667 42.3333 71.3813 42.3333 106.667V405.333C42.3333 440.619 71.048 469.333 106.333 469.333H319.667C354.952 469.333 383.667 440.619 383.667 405.333V223.68Z" fill="#FFB84D"/>
</g>
<defs>
<clipPath id="clip0_608_312">
<rect width="426" height="512" fill="white"/>
</clipPath>
</defs>
</svg>

<svg width="426" height="512" fill="none" xmlns="http://www.w3.org/2000/svg"><g clip-path="url(#a)"><path d="M298.333 320c0 11.776-9.557 21.333-21.333 21.333H149c-11.776 0-21.333-9.557-21.333-21.333 0-11.776 9.557-21.333 21.333-21.333h128c11.776 0 21.333 9.557 21.333 21.333zm128-96.32v181.653c0 58.816-47.85 106.667-106.666 106.667H106.333C47.517 512-.333 464.149-.333 405.333V106.667C-.333 47.851 47.517 0 106.333 0h96.32c39.894 0 77.376 15.53 105.6 43.733L382.6 118.08c28.203 28.203 43.733 65.707 43.733 105.6zM278.067 73.899a107.345 107.345 0 0 0-22.4-17.174v92.608c0 11.755 9.578 21.334 21.333 21.334h92.608a106.758 106.758 0 0 0-17.173-22.4L278.088 73.92l-.021-.021zm105.6 149.781c0-3.477-.171-6.933-.491-10.347H277c-35.285 0-64-28.714-64-64V43.157a110.89 110.89 0 0 0-10.347-.49h-96.32c-35.285 0-64 28.714-64 64v298.666c0 35.286 28.715 64 64 64h213.334c35.285 0 64-28.714 64-64V223.68z" fill="#FFB84D"/></g><defs><clipPath id="a"><path fill="#fff" d="M0 0h426v512H0z"/></clipPath></defs></svg>
